images/shortlistLogoMark.svg

<?xml version="1.0" encoding="UTF-8"?>
<svg width="60px" height="80px" viewBox="0 0 60 80" version="1.1" xmlns="http://www.w3.org/2000/svg" xmlns:xlink="http://www.w3.org/1999/xlink">
    <!-- Generator: Sketch 46.2 (44496) - http://www.bohemiancoding.com/sketch -->
    <title>shortlistLogoMark</title>
    <desc>Created with Sketch.</desc>
    <defs></defs>
    <g id="Logo" stroke="none" stroke-width="1" fill="none" fill-rule="evenodd">
        <g id="shortlistLogoMark" fill="#FEFEFE">
            <path d="M29.1432997,6.65710704 C32.0807024,3.39564513 37.1242002,3.13129628 40.3862418,6.06811925 L50.0077284,14.7319209 L46.8059769,18.287297 C45.616407,17.6820773 44.2830685,17.3939603 42.9143676,17.4675837 C40.8563886,17.5759899 38.9636276,18.4786021 37.5856513,20.0096226 C36.2065155,21.5412227 35.5068026,23.5174622 35.6140494,25.5754412 C35.685354,26.9441422 36.1097035,28.2397994 36.8360831,29.3603834 L33.6337519,32.9157595 L24.0122653,24.2525376 C21.8070394,22.2670226 18.9931154,21.2015112 16.0609302,21.1870184 L29.1432997,6.65710704 Z M55.9213745,46.203927 C55.7538376,43.0062334 54.3509336,40.0647728 51.9712143,37.9221558 L45.9851041,32.5319899 L43.2888618,35.5262044 L49.2755516,40.9163703 C50.8552679,42.3389845 51.7868657,44.2914558 51.8981705,46.4149423 C52.0088956,48.5384288 51.2865739,50.577857 49.8645394,52.158153 L36.7815902,66.6880643 C36.4598498,63.7616762 35.1068011,61.0868832 32.9009954,59.1007886 L10.6638078,39.0775226 C9.08351181,37.6549083 8.15191399,35.702437 8.04060921,33.5789505 C7.92930443,31.455464 8.65162607,29.4160358 10.0736606,27.8357399 C11.4974342,26.2560236 13.4504853,25.3244258 15.5739717,25.213121 C17.6957191,25.1000771 19.7368864,25.8235581 21.3166027,27.2467521 L33.9323038,38.6062164 L42.349148,29.2583541 L40.8517509,27.9105228 C40.1207335,27.2513898 39.6888478,26.3476181 39.6378331,25.3644259 C39.5862387,24.3818134 39.9207328,23.4374619 40.5798658,22.7058649 C41.2378393,21.9742679 42.1427704,21.5429618 43.1248032,21.4913674 C44.1224882,21.4368745 45.0529266,21.7742671 45.7839439,22.4328204 L47.2807613,23.7812314 L55.6976055,14.4333691 L43.0819044,3.07390475 C38.1682622,-1.3493008 30.5728705,-0.951618099 26.1496649,3.96144442 L7.08002578,25.1400772 C4.93740878,27.5197966 3.84928862,30.5916926 4.0168255,33.7899658 C4.18436238,36.9876594 5.58784608,39.9291201 7.96814516,42.0717371 L30.2053328,62.0950031 C31.7856288,63.5176173 32.7172266,65.4706683 32.8285314,67.5935751 C32.9398362,69.7164819 32.2175145,71.7564898 30.7949003,73.3367858 C29.3722861,74.916502 27.4186553,75.8486796 25.2951688,75.9599843 C23.1815375,76.06955 21.1328339,75.3489675 19.5525379,73.9263533 L9.93105132,65.2619719 L17.3635439,57.0074471 L14.3699091,54.3117845 L4.24059448,65.5605237 L16.8568753,76.9199881 C19.0771737,78.9194161 21.8986339,80 24.8644425,80 C25.077197,80 25.2916906,79.9947826 25.5067639,79.9831883 C28.7044574,79.8156515 31.6459181,78.4121678 33.7891148,76.0324484 L52.8581742,54.8538156 C55.0007912,52.4740962 56.0889114,49.4022003 55.9213745,46.203927 L55.9213745,46.203927 Z" id="mark"></path>
        </g>
    </g>
</svg>

<?xml version="1.0" encoding="UTF-8" standalone="no"?>
<svg xmlns="http://www.w3.org/2000/svg" height="80px" width="60px" version="1.1" xmlns:xlink="http://www.w3.org/1999/xlink" viewBox="0 0 60 80"><!-- Generator: Sketch 46.2 (44496) - http://www.bohemiancoding.com/sketch -->
 <title>shortlistLogoMark</title>
 <desc>Created with Sketch.</desc>
 <g id="Logo" fill-rule="evenodd" fill="none">
  <g id="shortlistLogoMark" fill="#FEFEFE">
   <path id="mark" d="m29.143 6.6571c2.938-3.2615 7.981-3.5258 11.243-0.589l9.622 8.6639-3.202 3.555c-1.19-0.605-2.523-0.893-3.892-0.819-2.058 0.108-3.95 1.011-5.328 2.542-1.379 1.531-2.079 3.507-1.972 5.565 0.071 1.369 0.496 2.665 1.222 3.785l-3.202 3.556-9.622-8.663c-2.205-1.986-5.019-3.051-7.951-3.066l13.082-14.53zm26.778 39.547c-0.167-3.198-1.57-6.139-3.95-8.282l-5.986-5.39-2.696 2.994 5.987 5.39c1.579 1.423 2.511 3.375 2.622 5.499 0.111 2.123-0.611 4.163-2.033 5.743l-13.083 14.53c-0.322-2.926-1.675-5.601-3.881-7.587l-22.237-20.023c-1.5805-1.423-2.5121-3.376-2.6234-5.499-0.1113-2.124 0.611-4.163 2.0334-5.743 1.423-1.58 3.376-2.512 5.5-2.623 2.122-0.113 4.163 0.611 5.743 2.034l12.615 11.359 8.417-9.348-1.497-1.347c-0.731-0.66-1.163-1.563-1.214-2.547-0.052-0.982 0.283-1.927 0.942-2.658 0.658-0.732 1.563-1.163 2.545-1.215 0.997-0.054 1.928 0.283 2.659 0.942l1.497 1.348 8.417-9.348-12.616-11.359c-4.914-4.4233-12.509-4.0256-16.932 0.8874l-19.07 21.179c-2.1426 2.38-3.2307 5.452-3.0632 8.65 0.1676 3.198 1.571 6.139 3.9513 8.282l22.237 20.023c1.581 1.423 2.512 3.376 2.624 5.499 0.111 2.122-0.611 4.162-2.034 5.743-1.423 1.58-3.376 2.512-5.5 2.623-2.113 0.11-4.162-0.611-5.742-2.034l-9.6219-8.664 7.4329-8.255-2.994-2.695-10.129 11.249 12.616 11.359c2.22 1.999 5.042 3.08 8.007 3.08 0.213 0 0.428-0.005 0.643-0.017 3.197-0.167 6.139-1.571 8.282-3.951l19.069-21.178c2.143-2.38 3.231-5.452 3.063-8.65z"/>
  </g>
 </g>
</svg>
